X:1029
T:Craig Elachie.
M:C|
L:1/8
Q:1/4=120
I: :: ||
Z:Jack Campin * www.campin.me.uk * 2009
K:D
d|D/D/D F>B AD`DB |D/D/D F>d A2 A>d   |E/E/E G>A BE`EB |d>e  (f/e/)(d/c/) B2A>B|
  d>e```fd  eB`dA |B>A```B>F A>Bd>e   |f>d```e>B d>AB>F|E/E/E FA          B2B :|
f|a>d```f>d a>dd>f|a>d```f>d a3 (g/f/)|b>e```g>e b>ee>f|de````fd          B2A>B|
  d>e```f>a e>fd>A|B>d```A>F A>Bd>e   |f>d```e>B d>AB>F|E/E/E FA          B2B :|

